!!!OTL: At Evening (Owl Song)
!!!ARE: United States of America
!!!AGN: Ojibway Indian Song
!!!AMD: Pentatonic
**kern
=1-
*clefG2
*k[b-]
*M2/4
*MM84
{4cc\
8cc\L
8dd\J
=2
4cc\
8a/L
8g/J
=3
[2f/
=4
4f/]}
{8f/L
8g/J
=5
4.a/
8f/
=6
8g/L
8f/J
8f/L
8d/J
=7
4c/}
{8c/L
8c/J
=8
4a/
8a/L
8cc/J
=9
8a/
4f/}
{8f/
=10
*M3/4
8a/L
8f/J
4f/
8d/L
8c/J
=11
*M2/4
[2c/
=12
4c/]}
{8cc\L
8dd\J
=13
4cc\
8a/L
8g/J
=14
[2f/
=15
4f/]}
{8f/L
8g/J
=16
4.a/
8g/
=17
8a/L
8f/J}
{8a/L
8f/J
=18
4f/
4f/
=19
4f/}
{8c/L
8d/J
=20
8.f/L
16f/Jk
8f/L
8g/J
=21
8.f/L
16d/Jk
8f/L
8d/J
=22
2c/}
==
*-
